X: 15626
T: Gobby O, The
R: jig
M: 6/8
K: Adorian
A/B/|"Am"c2A ABA|"Am"E2A A2c|"G"BAG GFG|"Em"Bde "G"dBG|
"Am"c2A ABA|"G"GBd "Em"efg|"C"edc "G"BAG|"Am"E2A A2:|
z|"Am"A2B "C"c2d|"Em"e2f "G"g3|"D"faf "C"g2e|"G"dBA GAB|
"Am"A2B "C"c2d|"Em"efg "Am"a2f|"C"gfe "G"dBG|"Am"E2A A2:|

